gama.ui.shared/icons_svg/light/generic/menu.about.svg

<svg height="25" viewBox="-919.385 -3676.127 25 25" width="25" xmlns="http://www.w3.org/2000/svg"><g fill="none"><path d="m-915.0446-3675.6274h16.32c2.1207 0 3.84 1.7194 3.84 3.84v16.32c0 2.1207-1.7193 3.84-3.84 3.84h-16.32c-2.1208 0-3.84-1.7193-3.84-3.84v-16.32c0-2.1206 1.7192-3.84 3.84-3.84z" fill="#fff"/><path d="m-915.0446-3675.6274h16.32c2.1207 0 3.84 1.7194 3.84 3.84v16.32c0 2.1207-1.7193 3.84-3.84 3.84h-16.32c-2.1208 0-3.84-1.7193-3.84-3.84v-16.32c0-2.1206 1.7192-3.84 3.84-3.84z" stroke="#000" stroke-linecap="round" stroke-linejoin="round" stroke-width=".25"/><path d="m-903.0312-3668.9966c-2.7557-1.1999-6.0818-.6729-8.3354 1.5806-2.9417 2.9418-2.9417 7.711 0 10.652.7.702 1.532 1.2583 2.448 1.637l.5234-1.233c-.7578-.3116-1.446-.7706-2.0246-1.3507-2.4186-2.4183-2.4186-6.3397 0-8.7583 1.8559-1.856 4.5972-2.288 6.8652-1.295z" fill="#999"/><path d="m-902.5491-3656.3477h1.4224v-4.6196h-4.8719v1.3489h3.4495z" fill="#666"/><path d="m-903.226-3659.6895c-1.0974 1.2641-2.9093 1.6289-4.4104.8881s-2.3137-2.4009-1.9779-4.0409c.3357-1.6397 1.7353-2.847 3.4068-2.9383v-1.3404c-1.2618.0486-2.4585.5725-3.3502 1.4666-1.9603 1.9611-1.9603 5.1404 0 7.1014 1.9611 1.961 5.1406 1.961 7.1013 0 .3455-.3456.6303-.7288.8541-1.1365z" fill="#666"/><path d="m-897.6941-3667.688c-.3628-.538-.7766-1.0397-1.2357-1.4982-3.9222-3.9223-10.2804-3.9223-14.2027 0-3.1164 3.1162-3.7563 7.7712-1.9201 11.5202l1.1633-.6718c-1.5425-3.2342-.9745-7.2234 1.7036-9.9022 3.3993-3.3986 8.9099-3.3986 12.3091 0 .3828.3834.7227.793 1.0191 1.2234z" fill="#ccc"/></g></svg>

<?xml version="1.0" encoding="UTF-8" standalone="no"?>
<!DOCTYPE svg PUBLIC "-//W3C//DTD SVG 1.1//EN" "http://www.w3.org/Graphics/SVG/1.1/DTD/svg11.dtd">
<svg xmlns:dc="http://purl.org/dc/elements/1.1/" xmlns:xl="http://www.w3.org/1999/xlink" version="1.1" xmlns="http://www.w3.org/2000/svg" viewBox="-919.3846 -3676.1274 25 25" width="25" height="25">
  <defs/>
  <g id="SOURCES" stroke-dasharray="none" stroke="none" stroke-opacity="1" fill="none" fill-opacity="1">
    <title>SOURCES</title>
    <g id="SOURCES_Calque_2">
      <title>Calque 2</title>
      <g id="Group_9275">
        <g id="Graphic_9239">
          <path d="M -915.0446 -3675.6274 L -898.7246 -3675.6274 C -896.6039 -3675.6274 -894.8846 -3673.908 -894.8846 -3671.7874 L -894.8846 -3655.4674 C -894.8846 -3653.3467 -896.6039 -3651.6274 -898.7246 -3651.6274 L -915.0446 -3651.6274 C -917.1654 -3651.6274 -918.8846 -3653.3467 -918.8846 -3655.4674 L -918.8846 -3671.7874 C -918.8846 -3673.908 -917.1654 -3675.6274 -915.0446 -3675.6274 Z" fill="white"/>
          <path d="M -915.0446 -3675.6274 L -898.7246 -3675.6274 C -896.6039 -3675.6274 -894.8846 -3673.908 -894.8846 -3671.7874 L -894.8846 -3655.4674 C -894.8846 -3653.3467 -896.6039 -3651.6274 -898.7246 -3651.6274 L -915.0446 -3651.6274 C -917.1654 -3651.6274 -918.8846 -3653.3467 -918.8846 -3655.4674 L -918.8846 -3671.7874 C -918.8846 -3673.908 -917.1654 -3675.6274 -915.0446 -3675.6274 Z" stroke="black" stroke-linecap="round" stroke-linejoin="round" stroke-width=".25"/>
        </g>
        <g id="Group_9273">
          <g id="Graphic_9266">
            <path d="M -903.0312 -3668.9966 C -905.7869 -3670.1965 -909.113 -3669.6695 -911.3666 -3667.416 C -914.3083 -3664.4742 -914.3083 -3659.705 -911.3666 -3656.764 C -910.6666 -3656.062 -909.8346 -3655.5057 -908.9186 -3655.127 L -908.3952 -3656.36 C -909.153 -3656.6716 -909.8412 -3657.1306 -910.4198 -3657.7107 C -912.8384 -3660.129 -912.8384 -3664.0504 -910.4198 -3666.469 C -908.5639 -3668.325 -905.8226 -3668.757 -903.5546 -3667.764 Z" fill="#999"/>
          </g>
          <g id="Graphic_9264">
            <path d="M -902.5491 -3656.3477 L -901.1267 -3656.3477 L -901.1267 -3660.9673 L -905.9986 -3660.9673 L -905.9986 -3659.6184 L -902.5491 -3659.6184 Z" fill="#666"/>
          </g>
          <g id="Graphic_9262">
            <path d="M -903.226 -3659.6895 C -904.3234 -3658.4254 -906.1353 -3658.0606 -907.6364 -3658.8014 C -909.1375 -3659.5422 -909.9501 -3661.2023 -909.6143 -3662.8423 C -909.2786 -3664.482 -907.879 -3665.6893 -906.2075 -3665.7806 L -906.2075 -3667.121 C -907.4693 -3667.0724 -908.666 -3666.5485 -909.5577 -3665.6544 C -911.518 -3663.6933 -911.518 -3660.514 -909.5577 -3658.553 C -907.5966 -3656.592 -904.4171 -3656.592 -902.4564 -3658.553 C -902.1109 -3658.8986 -901.8261 -3659.2818 -901.6023 -3659.6895 Z" fill="#666"/>
          </g>
          <g id="Graphic_9260">
            <path d="M -897.6941 -3667.688 C -898.0569 -3668.226 -898.4707 -3668.7277 -898.9298 -3669.1862 C -902.852 -3673.1085 -909.2102 -3673.1085 -913.1325 -3669.1862 C -916.2489 -3666.07 -916.8888 -3661.415 -915.0526 -3657.666 L -913.8893 -3658.3378 C -915.4318 -3661.572 -914.8638 -3665.5612 -912.1857 -3668.24 C -908.7864 -3671.6386 -903.2758 -3671.6386 -899.8766 -3668.24 C -899.4938 -3667.8566 -899.1539 -3667.447 -898.8575 -3667.0166 Z" fill="#ccc"/>
          </g>
        </g>
      </g>
    </g>
  </g>
</svg>
